X: 11
T:Off to California
M:4/4
L:1/8
R:Hornpipe
Z:ABC transcription Philippe Varlet
K:G
G3 B ADFD|GA (3ABc dGBd|edge dBBA|~G2 FG EGDF|!
~G2 GB ADFD|GA (3ABc dGBd|edge dBBA|1ADFA GABA:|2ADFA GABd:|!
~g2 ge ~a2 af|gage dG (3Bcd|edge dBBA|~G2 FG EGDf|!
~g2 ge ~a2 af|gage dG (3Bcd|edge dBBA|ADFA GABd|!
~g2 ge ~a2 af|gage dG (3Bcd|edge dBBA|~G2 FG EGDF|!
~G2 GB ADFD|GA (3ABc dGBd|edge dBBA|ADFA GABA:|
